Obsidian-SemiLight/actions/16s/transform-crop-and-resize.svg

<svg viewBox="0 0 16 16" xmlns="http://www.w3.org/2000/svg"><path d="m2 2v2 1h2v6 1h1 6v2h1 2v-2-1h-2v-6-.3125l2-2-.6875-.6875-2 2h-.3125-6v-2h-1zm1 1h1v1h-1zm2 2h5.3125l-5.3125 5.3125zm6 .6875v5.3125h-5.3125zm1 6.3125h1v1h-1z" fill="#4d4d4d"/></svg>

<svg xmlns="http://www.w3.org/2000/svg" viewBox="0 0 16 16">
  <defs id="defs3051">
    <style type="text/css" id="current-color-scheme">
      .ColorScheme-Text {
        color:#4d4d4d;
      }
      </style>
  </defs>
 <path style="fill:currentColor;fill-opacity:1;stroke:none" 
       d="M 2 2 L 2 4 L 2 5 L 4 5 L 4 11 L 4 12 L 5 12 L 11 12 L 11 14 L 12 14 L 14 14 L 14 12 L 14 11 L 12 11 L 12 5 L 12 4.6875 L 14 2.6875 L 13.3125 2 L 11.3125 4 L 11 4 L 5 4 L 5 2 L 4 2 L 2 2 z M 3 3 L 4 3 L 4 4 L 3 4 L 3 3 z M 5 5 L 10.3125 5 L 5 10.3125 L 5 5 z M 11 5.6875 L 11 11 L 5.6875 11 L 11 5.6875 z M 12 12 L 13 12 L 13 13 L 12 13 L 12 12 z "
     class="ColorScheme-Text"
     />
</svg>
